DuckDuckGo/Assets.xcassets/Trash.imageset/Trash-24.svg

<svg width="24" height="24" viewBox="0 0 24 24" fill="none" xmlns="http://www.w3.org/2000/svg">
<path fill-rule="evenodd" clip-rule="evenodd" d="M17.947 6.00003C17.5668 3.72279 15.5871 1.98706 13.2019 1.98706H10.7981C8.41297 1.98706 6.4332 3.72279 6.05306 6.00003H4C3.44772 6.00003 3 6.44774 3 7.00003C3 7.55231 3.44772 8.00003 4 8.00003V17.25C4 19.8734 6.12665 22 8.75 22H15.25C17.8734 22 20 19.8734 20 17.25V8.00003C20.5523 8.00003 21 7.55231 21 7.00003C21 6.44774 20.5523 6.00003 20 6.00003H17.947ZM8.12884 6.00003H15.8712C15.5281 4.85063 14.4628 4.01272 13.2019 4.01272H10.7981C9.53719 4.01272 8.47195 4.85063 8.12884 6.00003ZM17.1608 8.00003H18V17.25C18 18.7688 16.7688 20 15.25 20H8.75C7.23122 20 6 18.7688 6 17.25V8.00003H6.8392C6.89158 8.00838 6.94529 8.01272 7.00001 8.01272C7.05474 8.01272 7.10845 8.00838 7.16082 8.00003H16.8392C16.8916 8.00838 16.9453 8.01272 17 8.01272C17.0547 8.01272 17.1085 8.00838 17.1608 8.00003Z" fill="black" fill-opacity="0.84"/>
</svg>

<svg viewBox="0 0 24 24" fill="none" xmlns="http://www.w3.org/2000/svg">
  <path fill-rule="evenodd" clip-rule="evenodd" d="M17.947 6c-.38-2.277-2.36-4.013-4.745-4.013h-2.404C8.413 1.987 6.433 3.723 6.053 6H4c-.552 0-1 .448-1 1s.448 1 1 1v9.25C4 19.873 6.127 22 8.75 22h6.5c2.623 0 4.75-2.127 4.75-4.75V8c.552 0 1-.448 1-1s-.448-1-1-1h-2.053zM8.129 6h7.742c-.343-1.15-1.408-1.987-2.67-1.987h-2.403c-1.26 0-2.326.838-2.67 1.987zm9.032 2H18v9.25c0 1.519-1.231 2.75-2.75 2.75h-6.5C7.231 20 6 18.769 6 17.25V8h.84c.052.008.105.013.16.013.055 0 .108-.005.16-.013h9.68c.052.008.105.013.16.013.055 0 .108-.005.16-.013z" fill="#000"/>
</svg>
